X: 36828
T: Shincliffe, The
R: hornpipe
M: 4/4
K: Dmajor
|:d>e|f>ed>B A>FA>B|d>ef>g a2 f>a|g2 e>g f2 (3def|e>dc>B (3ABA (3FGA|
B2 G>A (3Bcd B>d|c2 A>B (3cde c>g|f>dc>e f>Ae>c|A>d (3ddc d2:|
|:d>e|f>ga>b a>gf>e|d>AF>A d2 e>f|g>ab>a g>fe>d|c>aB>^G A2 (3cde|
f2 (3gab a>Af>A|D>FA>d f2 (3def|g2 (3aba g2 (3fed|c>a (3ABc d2:|

